assets/spritemap.36f748ba.svg

<?xml version="1.0" encoding="UTF-8"?>
<svg xmlns="http://www.w3.org/2000/svg" xmlns:xlink="http://www.w3.org/1999/xlink" width="0" height="0">
<symbol id="sprite-checkmark" viewBox="0 0 12 7" fill="none"><path d="M11.455 0.818115L6.00044 5.72721L0.545898 0.818115" stroke="currentColor"/></symbol><symbol id="sprite-close" viewBox="0 0 18 18" fill="none"><path d="M1 17L9 9M9 9L17 1M9 9L17 17M9 9L1 1" stroke="currentColor" stroke-linecap="round" stroke-linejoin="round"/></symbol><symbol id="sprite-logo" viewBox="0 0 30 30" fill="none"><path d="M0.918425 8.80064C0.0667325 9.40733 -0.432452 10.6921 0.508531 12.2283C1.44951 13.7645 14.8931 24.1336 15.3859 24.4215C15.8789 24.7097 16.3721 24.7576 17.6264 23.7496C18.8813 22.7413 29.3653 14.8656 29.6358 14.6287C30.0663 14.2518 30.1735 13.3325 29.6358 12.9003C29.6358 12.9003 16.9346 22.4052 16.5188 22.7895C16.1031 23.1735 15.4561 22.5495 15.5776 21.7335C15.6996 20.9172 15.7894 20.8211 17.4026 19.5731C19.0158 18.3248 28.1622 11.3928 28.5772 11.0864C29.0471 10.7391 29.0584 10.1258 28.2887 9.58345C27.2185 8.82937 15.6538 0.604729 15.2669 0.316815C14.879 0.0286648 14.3421 -0.233137 13.5356 0.342927C12.7291 0.918991 2.48311 7.68578 0.918425 8.80064Z" fill="#316DC2"/><path d="M15.3859 25.4333C15.0624 25.2442 9.16394 20.7154 4.87955 17.1892V24.5413C4.87623 29.9082 19.9969 32.7757 25.0062 26.1781V19.1512C21.9289 21.4764 18.3294 24.1965 17.6264 24.7611C16.3721 25.7692 15.8789 25.7212 15.3859 25.4333Z" fill="#316DC2"/><path d="M21.7845 17.3718C21.7845 17.3718 24.0327 18.5021 24.1926 23.0505L23.1034 22.7503L22.232 24.6014C21.8633 19.6207 19.8557 18.8985 19.8557 18.8985L21.7845 17.3718Z" fill="#98B8E6"/></symbol><symbol id="sprite-odnoklassniki" viewBox="0 0 10 16" fill="none"><path d="M4.99973 2.42035C5.96186 2.42035 6.74431 3.18736 6.74431 4.1305C6.74431 5.0708 5.96186 5.83781 4.99973 5.83781C4.03761 5.83781 3.25516 5.0708 3.25516 4.1305C3.25516 3.18736 4.03761 2.42035 4.99973 2.42035ZM4.99973 8.25816C7.3239 8.25816 9.21337 6.40597 9.21337 4.1305C9.21337 1.85219 7.3239 0 4.99973 0C2.67557 0 0.788995 1.85219 0.788995 4.1305C0.788995 6.40597 2.67557 8.25816 4.99973 8.25816ZM6.70374 11.6273C7.56153 11.4342 8.38745 11.1018 9.14962 10.6331C9.72631 10.278 9.90019 9.53083 9.53794 8.96551C9.1728 8.39735 8.41353 8.22691 7.83394 8.58485C6.10965 9.6473 3.88981 9.6473 2.16263 8.58485C1.58593 8.22691 0.823771 8.39735 0.461526 8.96551C0.09928 9.53083 0.273157 10.278 0.849852 10.6331C1.61202 11.1018 2.43794 11.4342 3.29573 11.6273L0.939689 13.934C0.458627 14.4056 0.458627 15.1726 0.939689 15.6442C1.18312 15.88 1.4961 15.9993 1.81198 15.9993C2.12785 15.9993 2.44373 15.88 2.68716 15.6442L4.99973 13.3772L7.31521 15.6442C7.79627 16.1186 8.57582 16.1186 9.05978 15.6442C9.54084 15.1726 9.54084 14.4056 9.05978 13.934L6.70374 11.6273Z" fill="currentColor"/></symbol><symbol id="sprite-open" viewBox="0 0 20 10" fill="none"><path d="M1 1H19M1 5H19M1 9H19" stroke="currentColor" stroke-linecap="round"/></symbol><symbol id="sprite-reddit" viewBox="0 0 16 16" fill="none"><path d="M9.41503 0.363525C8.9486 0.363525 8.51091 0.611969 8.23017 0.97025C7.94942 1.32853 7.79468 1.76527 7.68195 2.22554C7.50289 2.96564 7.44763 3.78681 7.43436 4.52691C6.1235 4.61844 4.93642 5.02641 3.95051 5.65668C3.5504 5.30363 3.0685 5.10749 2.60649 5.11272C2.08038 5.11795 1.58079 5.35593 1.20941 5.84497C0.499822 6.77859 0.581612 8.30587 1.40394 9.21334C1.3531 9.49317 1.31552 9.78084 1.31552 10.0711C1.31552 13.1466 4.30862 15.6363 8.00027 15.6363C11.6919 15.6363 14.685 13.144 14.685 10.0711C14.685 9.78084 14.6474 9.49317 14.5966 9.21334C15.4189 8.30587 15.5007 6.77859 14.7911 5.84497C14.4197 5.35593 13.9202 5.11795 13.394 5.11272C12.932 5.10749 12.4501 5.30363 12.05 5.65668C11.0685 5.02903 9.88809 4.62106 8.58386 4.52691C8.60154 3.84435 8.64796 3.13563 8.77839 2.60213C8.86018 2.26739 8.95744 2.02417 9.06134 1.8908C9.16523 1.75742 9.24039 1.7025 9.41503 1.7025C9.79303 1.7025 9.84167 1.83065 10.0694 2.14186C10.1843 2.29877 10.3169 2.49491 10.5292 2.68582C10.7414 2.87673 11.0553 3.04148 11.3957 3.04148V1.7025C11.3006 1.7025 11.283 1.69989 11.2188 1.63974C11.1547 1.57959 11.0663 1.44098 10.9359 1.26315C10.675 0.904871 10.1688 0.363525 9.41503 0.363525ZM13.0934 0.489055C12.2136 0.489055 11.5018 1.33115 11.5018 2.37199C11.5018 3.41284 12.2136 4.25493 13.0934 4.25493C13.9732 4.25493 14.685 3.41284 14.685 2.37199C14.685 1.33115 13.9732 0.489055 13.0934 0.489055ZM13.0934 1.15854C13.6593 1.15854 14.1191 1.7025 14.1191 2.37199C14.1191 3.04148 13.6593 3.58544 13.0934 3.58544C12.5275 3.58544 12.0677 3.04148 12.0677 2.37199C12.0677 1.7025 12.5275 1.15854 13.0934 1.15854ZM8.00027 5.57299C11.1326 5.57299 13.7831 7.63638 13.7831 10.0711C13.7831 12.5085 11.1326 14.5693 8.00027 14.5693C4.8679 14.5693 2.21743 12.5085 2.21743 10.0711C2.21743 7.63638 4.8679 5.57299 8.00027 5.57299ZM2.62417 6.17972C2.78112 6.18233 2.94471 6.22417 3.10166 6.30524C2.53354 6.81521 2.08259 7.40101 1.77532 8.06265C1.5631 7.54485 1.62058 6.89889 1.88142 6.5563C2.07153 6.30524 2.33459 6.1771 2.62417 6.17972ZM13.3764 6.17972C13.6659 6.1771 13.929 6.30524 14.1191 6.5563C14.38 6.89889 14.4374 7.54485 14.2252 8.06265C13.9179 7.40101 13.467 6.81521 12.8989 6.30524C13.0558 6.22417 13.2194 6.18233 13.3764 6.17972ZM5.73665 7.85344C5.17074 7.85344 4.71095 8.3974 4.71095 9.06689C4.71095 9.73638 5.17074 10.2803 5.73665 10.2803C6.30255 10.2803 6.76235 9.73638 6.76235 9.06689C6.76235 8.3974 6.30255 7.85344 5.73665 7.85344ZM10.2639 7.85344C9.69798 7.85344 9.23818 8.3974 9.23818 9.06689C9.23818 9.73638 9.69798 10.2803 10.2639 10.2803C10.8298 10.2803 11.2896 9.73638 11.2896 9.06689C11.2896 8.3974 10.8298 7.85344 10.2639 7.85344ZM5.18843 11.975C5.54875 12.8563 6.66288 13.7115 8.00027 13.7115C9.33766 13.7115 10.4695 12.8563 10.8298 11.975C10.1755 12.4745 9.14313 12.8118 8.00027 12.8118C6.8574 12.8118 5.84276 12.4745 5.18843 11.975Z" fill="currentColor"/></symbol><symbol id="sprite-star" viewBox="0 0 18 22" fill="none"><path d="M9 0L12.0138 5.47476L18 5.5L15.0275 11L18 16.5L12.0138 16.5252L9 22L5.98623 16.5252L0 16.5L2.97246 11L0 5.5L5.98623 5.47476L9 0Z" fill="white"/></symbol><symbol id="sprite-vk" viewBox="0 0 16 10" fill="none"><path d="M15.8574 8.42065C15.8144 8.35182 15.5484 7.79922 14.2683 6.66345C12.9282 5.47413 13.1082 5.66725 14.7223 3.6108C15.7054 2.35839 16.0984 1.59355 15.9754 1.26659C15.8584 0.954918 15.1353 1.03714 15.1353 1.03714L12.7312 1.05052C12.7312 1.05052 12.5531 1.02758 12.4201 1.1031C12.2911 1.17768 12.2081 1.34976 12.2081 1.34976C12.2081 1.34976 11.8271 2.31919 11.3191 3.1433C10.248 4.88234 9.81894 4.97412 9.64393 4.86609C9.2369 4.61465 9.33891 3.85459 9.33891 3.31539C9.33891 1.62988 9.60593 0.927192 8.81787 0.745544C8.55585 0.685314 8.36384 0.64516 7.69479 0.638468C6.83672 0.629863 6.10967 0.641336 5.69864 0.8335C5.42462 0.96161 5.21361 1.24747 5.34262 1.26372C5.50163 1.2838 5.86165 1.35646 6.05267 1.60503C6.29969 1.9253 6.29069 2.64616 6.29069 2.64616C6.29069 2.64616 6.4327 4.62994 5.95966 4.8766C5.63464 5.04582 5.1896 4.70069 4.23453 3.12227C3.7455 2.31441 3.37547 1.42051 3.37547 1.42051C3.37547 1.42051 3.30447 1.25416 3.17746 1.16525C3.02345 1.05721 2.80743 1.0228 2.80743 1.0228L0.521262 1.03618C0.521262 1.03618 0.178236 1.04574 0.0522271 1.18819C-0.0597811 1.31535 0.0432264 1.5773 0.0432264 1.5773C0.0432264 1.5773 1.83336 5.58025 3.85951 7.59846C5.71864 9.4484 7.8288 9.32698 7.8288 9.32698H8.78487C8.78487 9.32698 9.07389 9.29639 9.2209 9.14438C9.35691 9.00479 9.35191 8.74284 9.35191 8.74284C9.35191 8.74284 9.33291 7.51624 9.92895 7.33554C10.516 7.15772 11.2701 8.52104 12.0691 9.0459C12.6732 9.44266 13.1322 9.35566 13.1322 9.35566L15.2693 9.32698C15.2693 9.32698 16.3874 9.26101 15.8574 8.42065Z" fill="currentColor"/></symbol><symbol id="sprite-arrow" width="10" height="10" viewBox="0 0 10 10" fill="none"><g clip-path="url(#clip0_2626_1160)"><path d="M1 9L9 1M9 1H1.05298M9 1V8.94702" stroke="currentColor"/></g><defs><clipPath><rect width="10" height="10" fill="currentColor"/></clipPath></defs></symbol><symbol id="sprite-check" viewBox="0 0 10 8" fill="none"><path d="M1 3.5L3.94737 7L9 1" stroke="currentColor" stroke-linecap="round" stroke-linejoin="round"/></symbol></svg>

<svg xmlns="http://www.w3.org/2000/svg" xmlns:xlink="http://www.w3.org/1999/xlink"><symbol id="b" fill="none" viewBox="0 0 10 10"><g clip-path="url(#a)"><path stroke="currentColor" d="m1 9 8-8m0 0h-7.95m7.95 0v7.95"/></g><defs><clipPath id="a"><path fill="currentColor" d="M0 0h10v10h-10z"/></clipPath></defs></symbol><use xlink:href="#b" width="10" height="10"/><view viewBox="0 0 10 10"/><symbol id="c" fill="none" viewBox="0 0 10 8"><path stroke="currentColor" stroke-linecap="round" stroke-linejoin="round" d="m1 3.5 2.95 3.5 5.05-6"/></symbol><use xlink:href="#c" width="10" height="8" y="10"/><view viewBox="0 10 10 8"/><symbol id="d" fill="none" viewBox="0 0 12 7"><path stroke="currentColor" d="m11.46.82-5.46 4.9-5.45-4.9"/></symbol><use xlink:href="#d" width="12" height="7" y="18"/><view viewBox="0 18 12 7"/><symbol id="e" fill="none" viewBox="0 0 18 18"><path stroke="currentColor" stroke-linecap="round" stroke-linejoin="round" d="m1 17 8-8m0 0 8-8m-8 8 8 8m-8-8-8-8"/></symbol><use xlink:href="#e" width="18" height="18" y="25"/><view viewBox="0 25 18 18"/><symbol id="f" fill="none" viewBox="0 0 30 30"><path fill="#316DC2" d="M.92 8.8c-.85.6-1.35 1.9-.41 3.43.94 1.54 14.38 11.9 14.88 12.2s.98.33 2.24-.68 11.74-8.88 12-9.12c.44-.38.54-1.3 0-1.73 0 0-12.7 9.5-13.11 9.89s-1.06-.24-.94-1.06.2-.9 1.82-2.16a2566 2566 0 0 1 11.18-8.48c.47-.35.48-.96-.3-1.5a5195 5195 0 0 1-13.01-9.27c-.4-.3-.93-.55-1.73.02-.81.58-11.06 7.35-12.62 8.46"/><path fill="#316DC2" d="M15.39 25.43c-.33-.19-6.23-4.71-10.51-8.24v7.35c0 5.37 15.12 8.24 20.13 1.64v-7.03a777.64 777.64 0 0 0-7.38 5.61c-1.26 1-1.75.96-2.24.67"/><path fill="#98B8E6" d="M21.79 17.37s2.24 1.13 2.4 5.68l-1.09-.3-.87 1.85c-.37-4.98-2.37-5.7-2.37-5.7z"/></symbol><use xlink:href="#f" width="30" height="30" y="43"/><view viewBox="0 43 30 30"/><symbol id="g" fill="none" viewBox="0 0 10 16"><path fill="currentColor" d="M5 2.42c.96 0 1.74.77 1.74 1.71s-.78 1.7-1.74 1.7-1.74-.76-1.74-1.7.78-1.71 1.74-1.71m0 5.84a4.18 4.18 0 0 0 4.21-4.13c0-2.28-1.89-4.13-4.21-4.13s-4.21 1.85-4.21 4.13a4.17 4.17 0 0 0 4.2 4.13m1.71 3.37a8 8 0 0 0 2.45-1c.57-.35.75-1.1.39-1.66a1.25 1.25 0 0 0-1.7-.38 5.44 5.44 0 0 1-5.68 0 1.24 1.24 0 0 0-1.7.38 1.2 1.2 0 0 0 .39 1.66 8 8 0 0 0 2.44 1l-2.35 2.3a1.2 1.2 0 0 0 0 1.71 1.25 1.25 0 0 0 1.75 0l2.31-2.26 2.32 2.26c.48.48 1.25.48 1.74 0a1.2 1.2 0 0 0 0-1.7z"/></symbol><use xlink:href="#g" width="10" height="16" y="73"/><view viewBox="0 73 10 16"/><symbol id="h" fill="none" viewBox="0 0 20 10"><path stroke="currentColor" stroke-linecap="round" d="M1 1h18m-18 4h18m-18 4h18"/></symbol><use xlink:href="#h" width="20" height="10" y="89"/><view viewBox="0 89 20 10"/><symbol id="i" fill="none" viewBox="0 0 16 16"><path fill="currentColor" d="M9.41.36c-.46 0-.9.25-1.18.61-.28.36-.44.8-.55 1.26-.18.74-.23 1.56-.25 2.3-1.3.09-2.5.5-3.48 1.13-.4-.36-.88-.55-1.34-.55-.53 0-1.03.25-1.4.73-.71.94-.63 2.47.2 3.37a5 5 0 0 0-.1.86c0 3.08 3 5.57 6.69 5.57s6.68-2.5 6.68-5.57c0-.29-.03-.58-.08-.86.82-.9.9-2.43.2-3.37a1.74 1.74 0 0 0-1.4-.73c-.47 0-.95.2-1.35.55a7.4 7.4 0 0 0-3.47-1.13c.02-.69.07-1.4.2-1.93.08-.33.18-.58.28-.7.1-.14.18-.2.35-.2.38 0 .43.13.66.44.11.16.25.35.46.55.21.19.53.35.87.35v-1.34c-.1 0-.12 0-.18-.06s-.15-.2-.28-.38c-.26-.35-.77-.9-1.52-.9m3.67.13c-.88 0-1.59.84-1.59 1.88s.71 1.88 1.6 1.88c.87 0 1.59-.84 1.59-1.88s-.72-1.88-1.6-1.88m0 .67c.57 0 1.03.54 1.03 1.21s-.46 1.21-1.03 1.21-1.02-.54-1.02-1.2c0-.68.46-1.22 1.02-1.22m-5.09 4.41c3.13 0 5.78 2.07 5.78 4.5 0 2.44-2.65 4.5-5.78 4.5-3.13 0-5.78-2.06-5.78-4.5 0-2.43 2.65-4.5 5.78-4.5m-5.38.61c.16 0 .32.04.48.13a5.45 5.45 0 0 0-1.33 1.75c-.2-.51-.15-1.16.11-1.5a.9.9 0 0 1 .74-.38m10.76 0a.9.9 0 0 1 .74.38c.26.34.32.99.1 1.5a5.45 5.45 0 0 0-1.32-1.76c.16-.08.32-.12.48-.12m-7.64 1.67c-.57 0-1.03.55-1.03 1.22s.46 1.21 1.03 1.21 1.02-.54 1.02-1.21c0-.67-.46-1.22-1.02-1.22m4.53 0c-.57 0-1.03.55-1.03 1.22s.46 1.21 1.03 1.21 1.02-.54 1.02-1.21c0-.67-.46-1.22-1.02-1.22m-5.08 4.13a3.1 3.1 0 0 0 2.81 1.73c1.34 0 2.47-.85 2.83-1.74-.65.5-1.68.84-2.83.84s-2.15-.34-2.81-.84"/></symbol><use xlink:href="#i" width="16" height="16" y="99"/><view viewBox="0 99 16 16"/><symbol id="j" fill="none" viewBox="0 0 18 22"><path fill="#fff" d="m9 0 3.01 5.48 5.99.02-2.97 5.5 2.97 5.5-5.99.03-3.01 5.47-3.01-5.47-5.99-.03 2.97-5.5-2.97-5.5 5.99-.02z"/></symbol><use xlink:href="#j" width="18" height="22" y="115"/><view viewBox="0 115 18 22"/><symbol id="k" fill="none" viewBox="0 0 16 10"><path fill="currentColor" d="M15.86 8.42c-.05-.07-.31-.62-1.6-1.76-1.33-1.19-1.15-1 .46-3.05.98-1.25 1.38-2.02 1.25-2.34-.11-.31-.84-.23-.84-.23l-2.4.01s-.18-.02-.3.05c-.14.08-.22.25-.22.25s-.38.97-.9 1.8c-1.06 1.73-1.5 1.82-1.67 1.72-.4-.25-.3-1.01-.3-1.55 0-1.69.27-2.4-.52-2.57-.26-.06-.46-.1-1.13-.11-.85-.01-1.58 0-2 .2-.27.12-.48.4-.35.42.16.02.52.1.71.35.25.31.24 1.04.24 1.04s.14 1.98-.33 2.23c-.32.17-.77-.18-1.72-1.76-.5-.8-.87-1.7-.87-1.7s-.07-.17-.2-.26c-.15-.1-.36-.14-.36-.14l-2.29.02s-.34 0-.47.15c-.11.12 0 .39 0 .39s1.78 4 3.81 6.02c1.86 1.85 3.97 1.73 3.97 1.73h.95s.3-.03.44-.19c.14-.14.13-.4.13-.4s-.02-1.22.58-1.4c.59-.18 1.34 1.18 2.14 1.7.6.4 1.06.32 1.06.32l2.14-.03s1.12-.07.59-.9"/></symbol><use xlink:href="#k" width="16" height="10" y="137"/><view viewBox="0 137 16 10"/></svg>
